X:1
T:Title
%%score { ( 1 3 ) | ( 2 4 ) }
L:1/8
Q:1/4=100
M:4/4
K:C
V:1 treble nm="Grand Piano"
V:3 treble 
V:2 bass 
V:4 bass 
V:1
 [EG][EG] [EG]>[DF] [CE]2 [EG]2 | [Ge][Ge][Ge][Fd] [CEc]4 | [CFA][CFA][CAc][CFA] [FA]2 [CEG]2 | %3
w: W.~A.~Post * * * * *|||
 [CG][CG][G,B,F][G,CE] [G,B,D]4 | [G,EG][CEG] [CEG]>[G,DF] [G,CE]2 [CEG]2 | %5
w: ||
 [CEc][CEc][CAc][Ad] [^Ge]4 | [^Fe][FA][Fe][FA] [Fe]2 [Fd]2 | cBAB [Ec]4 | G2 c2 e2 c2 | %9
w: ||||
 [CEG][G,CE][CEA][G,CE] [EG][_E^F] [D=F]2 |[M:2/4] [FB]2 d2 | f2 [FB]2 |[M:4/4] [EA][EG][Gc]d e4 | %13
w: ||||
 [EG][EG] [EG]>[DF] [CE]2 [EG]2 | [Ec][Ec][Ac][Ad] [^Ge]4 | [^Fe][FA][Fe][FA] [Fe]2 [Fd]2 | %16
w: |||
[M:8/4] cBAB [Ec]4 z8 |] %17
w: |
V:2
 [C,C][C,C] [C,C]>[C,G,] [C,G,]2 [C,C]2 | [C,C][C,C][G,B,][G,B,] C,4 | F,F,F,A, C2 C,2 | %3
 E,E,D,C, G,,4 | C,C, C,>C, C,2 C,2 | A,A,F,[F,A,] [E,B,]4 | [D,C][D,C][D,C][D,C] [D,C]2 [D,C]2 | %7
 [G,DF][G,DF][G,DF][G,F][K:bass] [C,G,]4 | [C,C][C,C][C,G,][C,G,] [C,C][C,C][C,G,]C, | z4 G,4 | %10
[M:2/4] G,G,[K:treble] F-[G,F] | .[G,D]2 z2[K:bass] | %12
[M:4/4] [C,C][C,C][E,C][K:treble][G,B,G] [CG]4 | [C,C][C,C] [C,C]>[C,G,] [C,G,]2 [C,C]2 | %14
 [A,C][A,C][F,C][F,A,] [E,B,]4 | [D,C][D,C][D,C][D,C] [D,C]2 [D,C]2 | %16
[M:8/4][K:treble] [G,DF][G,DF][G,DF][G,F][K:bass] [C,G,]4 z8 |] %17
V:3
 x8 | x8 | x8 | x8 | x8 | x8 | x8 | x8 | EEEE GGE[G,E] | x8 |[M:2/4] DD z B, | z D DD |[M:4/4] x8 | %13
 x8 | x8 | x8 |[M:8/4] x16 |] %17
V:4
 x8 | x8 | x8 | x8 | x8 | x8 | x8 | x4[K:bass] x4 | x8 | C,C,C,C, z A, B,2 | %10
[M:2/4] z2[K:treble] .[G,B,]2 | G-[G,G] G,[K:bass]G, |[M:4/4] x3[K:treble] x5 | x8 | x8 | x8 | %16
[M:8/4][K:treble] x4[K:bass] x12 |] %17

